X:1
T:Title
%%score { ( 1 3 ) | ( 2 4 ) }
L:1/8
Q:1/4=116
M:4/4
K:G
V:1 treble nm="Grand Piano"
V:3 treble 
V:2 bass 
V:4 bass 
V:1
 G4 A2 F2 | G6 B2 | [FA]3 B [Ac]2 A2 | B6 d2 | c2 B2 A2 G2 | F6 [^DF]2 | [^DB]4 [DF]4 | %7
w: Nellie~E.~W.~Fawcett * *|||||||
 [EG]2 [FA]2 [GB]2 [Ac]2 | [Bd]4 [Ac]4 | B6 d2 | d2 B2 e2 d2 | d6 z2 | B2 G2 c2 B2 | %13
w: ||||||
 B6[K:bass][K:treble] z2 | G4 G2 A2 | [DGB]4 [CFA]4 | G8 | G4 A2 F2 | G6 B2 | %19
w: ||||||
 A2 [Ad]2 [A^c]2 [Ge]2 | [Fd]6 d2 | z2 d2 c2 z2 | [DFA]6 [DFA]2 | [DGB]2 [DGB]2 [DFc]2 [DFc]2 | %24
w: |||||
[M:9/8] [Dd]2 [DGd]- [DGd] [Ge]2- [Ge] [EG]2 | %25
w: |
[M:19/16] z/ z/ z .c3/2 z/ z/ z/ z/ z/ z/ z/ z/ z/ z/ z[Q:1/4=114][Q:1/4=113][Q:1/4=111][Q:1/4=109][Q:1/4=107][Q:1/4=106][Q:1/4=104][Q:1/4=102][Q:1/4=101][Q:1/4=99][Q:1/4=97][Q:1/4=96][Q:1/4=94][Q:1/4=92] | %26
w: |
[M:4/4] [B,DG]8[Q:1/4=90][Q:1/4=89] |] %27
w: |
V:2
 [G,B,D]4 [D,CD]2 [D,A,D]2 | [G,B,D]6 [G,DG]2 | z2 z G z2 F2 | [G,DG]6 [B,D]2 | %4
 [A,DF]2 [G,DG]2[K:bass] [F,A,]2 [E,A,^C]2 | [D,A,D]6 [B,,B,]2 | [B,,F,]4 [B,,B,]4 | %7
 [E,B,]4 [E,B,]4 | [D,D]4 [D,D]4 | [G,DG]6 B2 | B2 G2 c2 B2 | B6[K:bass] z2 | D2 B,2 E2 D2 | %13
 D6 z2 | z4 B,2 z2 | D,4 D,4 | [G,B,D]8 | [G,B,D]4 [D,CD]2 [D,A,D]2 | [G,B,D]6 [G,DG]2 | %19
 [A,DF]2 [A,F]2 [A,E]2[K:bass] [A,^C]2 | [D,D]6[K:treble] [B,G]2 | [CG]2 .[B,G]2 .[A,E]2 G,2 | %22
 D,2 C,2 B,,2 A,,2 | G,,2 G,,2 A,,2 A,,2 |[M:9/8] B,,2 B,,- B,, [C,C]2- [C,C] z A | %25
[M:19/16] D,-<D, z[K:treble] B[K:bass]D,/-D,/-D,/-D,/-D,/-D,-<D,G, |[M:4/4] G,8 |] %27
V:3
 x8 | x8 | z4 D4 | x8 | x8 | x8 | x8 | x8 | x8 | x8 | x8 | z2 D2 D2 B2 | x8 | %13
 z2[K:bass] D,2 D,2[K:treble] G2 | x8 | x8 | x8 | x8 | x8 | x8 | x8 | e2 z D z F [DGB]2 | x8 | x8 | %24
[M:9/8] x9 |[M:19/16] [DGB]-<[DGB][DG]-<[DG][CFA]/-[CFA]/-[CFA]/-[CFA]/-[CFA]/-[CFA]-<[CFA][B,DG] | %26
[M:4/4] x8 |] %27
V:4
 x8 | x8 | [D,D]4 D,4 | x8 | x4[K:bass] x4 | x8 | x8 | x8 | x8 | x8 | x8 | z2[K:bass] G,2 G,2 D2 | %12
 x8 | z2 G,,2 G,,2 [D,B,D]2 | [D,B,D]4 [D,D]2- [D,CD]2 | x8 | x8 | x8 | x8 | x6[K:bass] x2 | %20
 x6[K:treble] x2 | x8 | x8 | x8 |[M:9/8] z3 z3 z ^C,2 | %25
[M:19/16] z/ z/ z D,-<D,[K:treble][K:bass] z/ z/ z/ z/ z/ z/ z/ z/ z/ z |[M:4/4] x8 |] %27

